src/assets/img/index/icons/crypto.svg

<svg width="140" height="140" viewBox="0 0 140 140" fill="none"
    xmlns="http://www.w3.org/2000/svg">
    <g filter="url(#filter0_d)">
        <circle cx="70" cy="66" r="50" fill="white"/>
    </g>
    <path d="M50.1636 36L40 53.5505L50.1636 60L60.3226 53.5505L50.1636 36Z" stroke="#A29EC0" stroke-width="2" stroke-linecap="round" stroke-linejoin="round"/>
    <path d="M43.8708 52.9714L50.1635 42L56.4515 52.9714L50.1635 57L43.8708 52.9714Z" fill="#B88DFC"/>
    <path d="M40 58L50.1636 76L60.3226 58" stroke="#A29EC0" stroke-width="2" stroke-linecap="round" stroke-linejoin="round"/>
    <path d="M50.6453 60V69" stroke="#A29EC0" stroke-width="2" stroke-linecap="round" stroke-linejoin="round"/>
    <path d="M82.9474 59.2733H77.2459C76.8645 59.272 76.4991 59.1112 76.2294 58.8261C75.9597 58.541 75.8076 58.1547 75.8064 57.7515V57.497C75.8064 57.2984 75.8438 57.1017 75.9164 56.9184C75.989 56.7352 76.0955 56.569 76.2295 56.4297C76.3634 56.2904 76.5223 56.1807 76.6968 56.1069C76.8713 56.0332 77.058 55.9969 77.2459 56.0002H98.584C98.9595 56.0002 99.3196 56.1579 99.5851 56.4386C99.8507 56.7193 99.9999 57.1001 99.9999 57.497V57.7515C99.9988 58.1504 99.85 58.533 99.5854 58.8174C99.3207 59.1018 98.9613 59.2655 98.584 59.2733H98.3528V63.9683C98.3528 66.8941 97.2532 69.7001 95.2962 71.7689C93.3392 73.8378 90.685 75 87.9173 75C86.5465 75.0007 85.189 74.7158 83.9224 74.1617C82.6558 73.6076 81.5048 72.7951 80.5353 71.7707C79.5658 70.7462 78.7967 69.5299 78.272 68.1912C77.7473 66.8524 77.4772 65.4175 77.4772 63.9683V59.2733" stroke="#A29EC0" stroke-width="2" stroke-linecap="round" stroke-linejoin="round"/>
    <path d="M81.1312 47C80.9405 46.9994 80.7515 47.0428 80.5752 47.1276C80.3988 47.2124 80.2385 47.3371 80.1035 47.4944C79.9685 47.6518 79.8613 47.8387 79.7882 48.0445C79.7151 48.2503 79.6775 48.4709 79.6775 48.6938V56H82.5807V48.6938C82.5807 48.2446 82.428 47.8137 82.1561 47.4961C81.8843 47.1785 81.5156 47 81.1312 47V47Z" stroke="#A29EC0" stroke-width="2" stroke-miterlimit="10"/>
    <path d="M96.1251 56H93.2259V48.6976C93.2259 48.2473 93.3789 47.8155 93.6511 47.4972C93.9233 47.1788 94.2925 47 94.6775 47C95.0625 47 95.4317 47.1788 95.704 47.4972C95.9762 47.8155 96.1292 48.2473 96.1292 48.6976V56H96.1251Z" stroke="#A29EC0" stroke-width="2" stroke-miterlimit="10"/>
    <path d="M99.0323 59H93.2258" stroke="#A29EC0" stroke-width="2" stroke-linecap="round" stroke-linejoin="round"/>
    <path d="M88.9401 62L85.4839 65.5348H90.3226L85.9616 70" stroke="#A29EC0" stroke-width="2" stroke-linecap="round" stroke-linejoin="round"/>
    <path d="M63.279 84.1054C63.1793 70.9828 77.2605 73.8167 73.1031 81.4978C71.9179 83.6216 70.1413 85.3607 67.9863 86.5065C65.8314 87.6523 63.3894 88.1562 60.9535 87.9578C55.0495 87.3778 50.6453 82.2617 50.6453 76.3629V75.8914" stroke="#A29EC0" stroke-width="2" stroke-linecap="round" stroke-linejoin="round"/>
    <path d="M88.3871 75V77.0031C88.3871 94.6857 70.065 101.491 64.2688 91.1002C63.7669 90.2331 63.4143 89.2866 63.2258 88.3008" stroke="#A29EC0" stroke-width="2" stroke-linecap="round" stroke-linejoin="round"/>
    <defs>
        <filter id="filter0_d" x="0" y="0" width="140" height="140" filterUnits="userSpaceOnUse" color-interpolation-filters="sRGB">
            <feFlood flood-opacity="0" result="BackgroundImageFix"/>
            <feColorMatrix in="SourceAlpha" type="matrix" values="0 0 0 0 0 0 0 0 0 0 0 0 0 0 0 0 0 0 127 0" result="hardAlpha"/>
            <feOffset dy="4"/>
            <feGaussianBlur stdDeviation="10"/>
            <feColorMatrix type="matrix" values="0 0 0 0 0.835294 0 0 0 0 0.843137 0 0 0 0 0.886275 0 0 0 1 0"/>
            <feBlend mode="normal" in2="BackgroundImageFix" result="effect1_dropShadow"/>
            <feBlend mode="normal" in="SourceGraphic" in2="effect1_dropShadow" result="shape"/>
        </filter>
    </defs>
</svg>

<svg xmlns="http://www.w3.org/2000/svg" width="100" height="100" viewBox="0 0 100 100"><defs><style>.a{fill:#fff;}.b,.d{fill:none;stroke:#a29ec0;stroke-width:2px;}.b{stroke-linecap:round;stroke-linejoin:round;}.c{fill:#b88dfc;}.d{stroke-miterlimit:10;}</style></defs><circle class="a" cx="50" cy="50" r="50"/><path class="b" d="M50.16,36,40,53.55,50.16,60l10.16-6.45Z" transform="translate(-20 -16)"/><path class="c" d="M43.87,53l6.29-11,6.29,11-6.29,4Z" transform="translate(-20 -16)"/><path class="b" d="M40,58,50.16,76,60.32,58" transform="translate(-20 -16)"/><path class="b" d="M50.65,60v9" transform="translate(-20 -16)"/><path class="b" d="M83,59.27h-5.7a1.41,1.41,0,0,1-1-.44,1.59,1.59,0,0,1-.42-1.08V57.5a1.43,1.43,0,0,1,.11-.58,1.57,1.57,0,0,1,.31-.49,1.27,1.27,0,0,1,.47-.32,1.29,1.29,0,0,1,.55-.11H98.58a1.4,1.4,0,0,1,1,.44A1.56,1.56,0,0,1,100,57.5v.25a1.6,1.6,0,0,1-.41,1.07,1.41,1.41,0,0,1-1,.45h-.23V64a11.4,11.4,0,0,1-3,7.8A10.17,10.17,0,0,1,87.92,75a9.9,9.9,0,0,1-4-.84,10.21,10.21,0,0,1-3.38-2.39,11.13,11.13,0,0,1-2.27-3.58A11.66,11.66,0,0,1,77.48,64v-4.7" transform="translate(-20 -16)"/><path class="d" d="M81.13,47a1.17,1.17,0,0,0-.55.13,1.51,1.51,0,0,0-.48.36,1.86,1.86,0,0,0-.31.55,2.06,2.06,0,0,0-.11.65V56h2.9V48.69a1.82,1.82,0,0,0-.42-1.19,1.36,1.36,0,0,0-1-.5Z" transform="translate(-20 -16)"/><path class="d" d="M96.13,56h-2.9V48.7a1.86,1.86,0,0,1,.42-1.2,1.3,1.3,0,0,1,2,0,1.82,1.82,0,0,1,.43,1.2V56Z" transform="translate(-20 -16)"/><path class="b" d="M99,59h-5.8" transform="translate(-20 -16)"/><path class="b" d="M88.94,62l-3.46,3.53h4.84L86,70" transform="translate(-20 -16)"/><path class="b" d="M63.28,84.11c-.1-13.13,14-10.29,9.82-2.61a12.7,12.7,0,0,1-5.11,5A12.84,12.84,0,0,1,61,88a11.59,11.59,0,0,1-10.3-11.6v-.47" transform="translate(-20 -16)"/><path class="b" d="M88.39,75v2c0,17.69-18.32,24.49-24.12,14.1a8.77,8.77,0,0,1-1-2.8" transform="translate(-20 -16)"/></svg>
